icons/xamarin.svg

<svg data-name="Layer 1" xmlns="http://www.w3.org/2000/svg" viewBox="0 0 64 64"><path d="M18.89 4a4.92 4.92 0 00-4.16 2.4L1.62 29.1a4.93 4.93 0 000 4.79L14.73 56.6a4.92 4.92 0 004.16 2.4h26.22a4.92 4.92 0 004.16-2.4l13.11-22.7a4.93 4.93 0 000-4.79L49.27 6.4A4.92 4.92 0 0045.11 4zm.24 13.28h4.63a.6.6 0 01.49.29l7.67 13.63a.59.59 0 01.07.22.59.59 0 01.07-.22l7.65-13.63a.6.6 0 01.51-.29h4.52a.62.62 0 01.51.86L37.79 31.5l7.49 13.34a.62.62 0 01-.51.88h-4.53a.6.6 0 01-.51-.31l-7.66-13.64a.59.59 0 01-.07-.22.59.59 0 01-.07.22l-7.68 13.64a.6.6 0 01-.49.31h-4.52a.62.62 0 01-.51-.88l7.48-13.34-7.49-13.36a.61.61 0 01.4-.86z" fill="#3498db"/></svg>

<svg id="Layer_1" data-name="Layer 1" xmlns="http://www.w3.org/2000/svg" viewBox="0 0 64 64">
  <defs>
    <style>
      .cls-1 {
        fill: #3498db;
      }
    </style>
  </defs>
  <title>logo_xamarin</title>
  <path id="Logo" class="cls-1" d="M18.89,4a4.92,4.92,0,0,0-4.16,2.4L1.62,29.1a4.93,4.93,0,0,0,0,4.79L14.73,56.6A4.92,4.92,0,0,0,18.89,59H45.11a4.92,4.92,0,0,0,4.16-2.4L62.38,33.9a4.93,4.93,0,0,0,0-4.79L49.27,6.4A4.92,4.92,0,0,0,45.11,4Zm.24,13.28h4.63a.6.6,0,0,1,.49.29l7.67,13.63a.59.59,0,0,1,.07.22.59.59,0,0,1,.07-.22l7.65-13.63a.6.6,0,0,1,.51-.29h4.52a.62.62,0,0,1,.51.86L37.79,31.5l7.49,13.34a.62.62,0,0,1-.51.88H40.24a.6.6,0,0,1-.51-.31L32.07,31.77a.59.59,0,0,1-.07-.22.59.59,0,0,1-.07.22L24.25,45.41a.6.6,0,0,1-.49.31H19.24a.62.62,0,0,1-.51-.88L26.21,31.5,18.72,18.14a.61.61,0,0,1,.4-.86Z"/>
</svg>
